brandFactory_export/2.Regular/Proceso cargando _2Regular.svg

<?xml version="1.0" encoding="UTF-8"?>
<svg width="24px" height="24px" viewBox="0 0 24 24" version="1.1" xmlns="http://www.w3.org/2000/svg" xmlns:xlink="http://www.w3.org/1999/xlink">
    <title>2.Regular/Proceso cargando _2Regular</title>
    <g id="Symbols" stroke="none" stroke-width="1" fill="none" fill-rule="evenodd">
        <g id="2.Regular/Proceso-cargando-_2Regular" fill="#5CB615" fill-rule="nonzero">
            <path d="M11.8084034,22.1747899 C18.6857143,22.1747899 22.1747899,18.6890756 22.1747899,11.8151261 C22.1747899,4.93781513 18.6890756,1.4487395 11.8084034,1.4487395 C4.93445378,1.4487395 1.4487395,4.93781513 1.4487395,11.8151261 C1.4487395,18.6890756 4.93445378,22.1747899 11.8084034,22.1747899 Z M11.8084034,0 C19.5361345,0 23.6235294,4.08403361 23.6235294,11.8151261 C23.6235294,19.5394958 19.5394958,23.6235294 11.8084034,23.6235294 C4.08403361,23.6235294 0,19.5394958 0,11.8151261 C0,4.08403361 4.08403361,0 11.8084034,0 Z M11.8621849,2.45042017 C12.2621849,2.45042017 12.5882353,2.77647059 12.5882353,3.17647059 L12.5882353,6.80672269 C12.5882353,7.20672269 12.2655462,7.53277311 11.8621849,7.53277311 C11.4588235,7.53277311 11.1361345,7.21008403 11.1361345,6.80672269 L11.1361345,3.17647059 C11.1394958,2.77647059 11.4621849,2.45042017 11.8621849,2.45042017 Z M7.52941176,11.7613445 C7.52941176,12.1613445 7.20336134,12.487395 6.80336134,12.487395 L3.17310924,12.487395 C2.77310924,12.487395 2.44705882,12.1647059 2.44705882,11.7613445 C2.44705882,11.3579832 2.7697479,11.0352941 3.17310924,11.0352941 L6.80336134,11.0352941 C7.20672269,11.0386555 7.52941176,11.3613445 7.52941176,11.7613445 Z M7.72436975,14.8033613 C8.00672269,14.5210084 8.46722689,14.5210084 8.74957983,14.8033613 C9.03193277,15.0857143 9.03193277,15.5462185 8.74957983,15.8285714 L6.18487395,18.3932773 C5.90252101,18.6756303 5.44537815,18.6756303 5.16302521,18.3966387 L5.15966387,18.3932773 C4.87731092,18.1109244 4.87731092,17.6504202 5.15966387,17.3680672 L7.72436975,14.8033613 L7.72436975,14.8033613 Z M11.7613445,16.0941176 C12.1613445,16.0941176 12.4840336,16.4201681 12.4840336,16.8201681 L12.4840336,20.4470588 C12.4705882,20.8470588 12.1344538,21.1596639 11.7344538,21.1428571 C11.3546218,21.1294118 11.0521008,20.8235294 11.0386555,20.4470588 L11.0386555,16.8201681 C11.0386555,16.4201681 11.3613445,16.0941176 11.7613445,16.0941176 Z M15.8285714,14.8773109 L18.3932773,17.4420168 C18.6655462,17.7378151 18.6453782,18.194958 18.3529412,18.4672269 C18.0739496,18.7226891 17.6470588,18.7226891 17.3714286,18.4672269 L14.8033613,15.8991597 C14.507563,15.6268908 14.4907563,15.1697479 14.7630252,14.8739496 C15.0352941,14.5781513 15.492437,14.5613445 15.7882353,14.8336134 C15.8016807,14.8470588 15.8151261,14.8638655 15.8285714,14.8773109 L15.8285714,14.8773109 Z M20.4470588,11.1394958 C20.8470588,11.1529412 21.1596639,11.4890756 21.1428571,11.8890756 C21.1294118,12.2689076 20.8235294,12.5714286 20.4470588,12.5848739 L16.8168067,12.5848739 C16.4168067,12.5714286 16.1042017,12.2352941 16.1210084,11.8352941 C16.1344538,11.4554622 16.4403361,11.1529412 16.8168067,11.1394958 L20.4470588,11.1394958 Z M15.3882353,9.03193277 C14.9882353,9.03193277 14.6655462,8.7092437 14.6621849,8.3092437 C14.6621849,8.11764706 14.7394958,7.92941176 14.8739496,7.79495798 L17.4386555,5.22689076 C17.7210084,4.94453782 18.1815126,4.94453782 18.4638655,5.22689076 C18.7462185,5.5092437 18.7462185,5.96638655 18.4638655,6.25210084 L15.8991597,8.82016807 C15.7647059,8.95462185 15.5798319,9.03193277 15.3882353,9.03193277 L15.3882353,9.03193277 Z" id="Proceso-cargando-_2Regular"></path>
        </g>
    </g>
</svg>

<svg width="24" height="24" viewBox="0 0 24 24" xmlns="http://www.w3.org/2000/svg"><path d="M11.808 22.175c6.878 0 10.367-3.486 10.367-10.36 0-6.877-3.486-10.366-10.367-10.366-6.874 0-10.36 3.489-10.36 10.366 0 6.874 3.486 10.36 10.36 10.36zm0-22.175c7.728 0 11.816 4.084 11.816 11.815 0 7.724-4.085 11.809-11.816 11.809C4.084 23.624 0 19.539 0 11.815 0 4.084 4.084 0 11.808 0zm.054 2.45c.4 0 .726.326.726.726v3.63a.725.725 0 11-1.452 0v-3.63a.73.73 0 01.726-.726zM7.53 11.761c0 .4-.326.726-.726.726h-3.63a.725.725 0 110-1.452h3.63a.727.727 0 01.726.726zm.195 3.042a.726.726 0 011.026 0 .726.726 0 010 1.026l-2.565 2.564a.725.725 0 01-1.022.004l-.003-.004a.726.726 0 010-1.025l2.564-2.565zm4.037 1.291c.4 0 .723.326.723.726v3.627a.722.722 0 01-1.445 0V16.82c0-.4.322-.726.722-.726zm4.068-1.217l2.564 2.565a.724.724 0 01-1.022 1.025L14.803 15.9a.724.724 0 01-.04-1.025.724.724 0 011.025-.04c.014.013.027.03.04.043zm4.618-3.738a.722.722 0 010 1.445h-3.63a.722.722 0 010-1.445h3.63zm-5.059-2.107a.727.727 0 01-.514-1.237l2.565-2.568a.726.726 0 011.025 0 .726.726 0 010 1.025L15.899 8.82a.725.725 0 01-.51.212z" fill="#5CB615" fill-rule="nonzero"/></svg>
